symbols/web/usb_off/materialsymbolsoutlined/usb_off_wght700grad200_40px.svg

<svg xmlns="http://www.w3.org/2000/svg" height="40" width="40"><path d="M34.958 39.042 23.292 27.458h-1.375v3.459q.875.583 1.291 1.416.417.834.417 1.75 0 1.625-1.021 2.688-1.021 1.062-2.604 1.062-1.583 0-2.604-1.062-1.021-1.063-1.021-2.688 0-.916.417-1.729.416-.812 1.25-1.354v-3.583h-5.209q-1.583 0-2.75-1.146-1.166-1.146-1.166-2.729v-3.959q-.834-.5-1.271-1.312-.438-.813-.438-1.854 0-1.042.521-1.875.521-.834 1.271-1.334L.958 5.042l2.375-2.334 33.959 33.959ZM30.5 25.208l-4.417-4.375V18.5h-.625v-5.708h7.334v7.291h-1.709V23.5q0 .5-.145.938-.146.437-.438.77Zm-17.667-1.666h5.25v-1.334l-4-3.916q-.208.416-.521.708-.312.292-.729.542v4Zm9.125-6.834-3.875-3.916V9.625h-1.708l-1.292-1.25L20 1.792l5.833 7.833h-3.875Z"/></svg>

<svg xmlns="http://www.w3.org/2000/svg" height="40" width="40"><path d="M34.958 39.042 23.292 27.458H21.917V30.917Q22.792 31.5 23.208 32.333Q23.625 33.167 23.625 34.083Q23.625 35.708 22.604 36.771Q21.583 37.833 20 37.833Q18.417 37.833 17.396 36.771Q16.375 35.708 16.375 34.083Q16.375 33.167 16.792 32.354Q17.208 31.542 18.042 31V27.417H12.833Q11.25 27.417 10.083 26.271Q8.917 25.125 8.917 23.542V19.583Q8.083 19.083 7.646 18.271Q7.208 17.458 7.208 16.417Q7.208 15.375 7.729 14.542Q8.25 13.708 9 13.208L0.958 5.042L3.333 2.708L37.292 36.667ZM30.5 25.208 26.083 20.833V18.5H25.458V18.458V12.792H32.792V20.083H31.083V23.5Q31.083 24 30.938 24.438Q30.792 24.875 30.5 25.208ZM12.833 23.542H18.083V22.208L14.083 18.292Q13.875 18.708 13.562 19Q13.25 19.292 12.833 19.542V23.542Q12.833 23.542 12.833 23.542Q12.833 23.542 12.833 23.542ZM21.958 16.708 18.083 12.792V9.625H16.375L15.083 8.375L20 1.792L25.833 9.625H21.958Z"/></svg>
